X: 1
T: Cristina Pato's Muieira
M: 6/8
L: 1/8
R: jig
K: Dmaj
AA|:DAA DAA|GFG E2F|GFG EFG|F/2G/2AF DAA|
DAA DAA|GFG E2F|GFA GFE|1 D4 AA:|2D3 DED||
B4  FG  |A4   EF|G2 G GFG|A3 DED|
B4   FG |A4   EF|G2 G GFE|D3 DED|
B2 F G2 (A|A4)EF|G2 G GFG|A3 DED|
B2 F G2 (A|A4)EF |G2 G GFE|D3 BdB||
